; generated by PrusaSlicer 2.3.3+x64 on 2022-03-05 at 20:41:06 UTC

; 

; external perimeters extrusion width = 0.45mm
; perimeters extrusion width = 0.45mm
; infill extrusion width = 0.45mm
; solid infill extrusion width = 0.45mm
; top infill extrusion width = 0.40mm
; support material extrusion width = 0.35mm
; first layer extrusion width = 0.42mm

M73 P0 R72
M73 Q0 S72
M201 X1000 Y1000 Z200 E5000 ; sets maximum accelerations, mm/sec^2
M203 X200 Y200 Z12 E120 ; sets maximum feedrates, mm/sec
M204 P1250 R1250 T1250 ; sets acceleration (P, T) and retract acceleration (R), mm/sec^2
M205 X8.00 Y8.00 Z0.40 E4.50 ; sets the jerk limits, mm/sec
M205 S0 T0 ; sets the minimum extruding and travel feed rate, mm/sec
M107
;TYPE:Custom
M862.3 P "MK3" ; printer model check
M862.1 P0.4 ; nozzle diameter check
M115 U3.10.0 ; tell printer latest fw version
G90 ; use absolute coordinates
M83 ; extruder relative mode
M104 S215 ; set extruder temp
M140 S60 ; set bed temp
M190 S60 ; wait for bed temp
M109 S215 ; wait for extruder temp
G28 W ; home all without mesh bed level
G80 ; mesh bed leveling
G1 Y-3.0 F1000.0 ; go outside print area
G92 E0.0
G1 X60.0 E9.0 F1000.0 ; intro line
G1 X100.0 E12.5 F1000.0 ; intro line
G92 E0.0
M221 S95

; Don't change E values below. Excessive value can damage the printer.
M907 E430 ; set extruder motor current
G21 ; set units to millimeters
G90 ; use absolute coordinates
M83 ; use relative distances for extrusion
M900 K0.05 ; Filament gcode LA 1.5
M900 K30 ; Filament gcode LA 1.0
;LAYER_CHANGE
;Z:0.2
;HEIGHT:0.2
;BEFORE_LAYER_CHANGE
G92 E0.0
;0.2


G1 E-0.80000 F2100.000
G1 Z0.400 F10800.000
;AFTER_LAYER_CHANGE
;0.2
G1 X101.529 Y88.324
G1 Z0.200
G1 E0.80000 F2100.000
M204 S1000
;TYPE:Skirt
;WIDTH:0.42
G1 F1200.000
G1 X102.232 Y87.834 E0.02684
G1 X103.058 Y87.625 E0.02673
G1 X135.521 Y85.475 E1.02009
G1 X143.530 Y85.471 E0.25112
G1 X144.461 Y85.661 E0.02977
G1 X145.240 Y86.197 E0.02966
G1 X147.406 Y88.813 E0.10649
G1 X147.679 Y89.335 E0.01846
G1 X147.815 Y89.912 E0.01858
G1 X147.828 Y117.194 E0.85542
G1 X147.639 Y118.067 E0.02802
G1 X147.141 Y118.809 E0.02802
G1 X144.638 Y121.169 E0.10788
G1 X144.077 Y121.490 E0.02024
G1 X143.448 Y121.648 E0.02036
G1 X117.652 Y124.147 E0.81259
G1 X107.569 Y123.973 E0.31621
G1 X106.761 Y123.767 E0.02614
G1 X106.071 Y123.292 E0.02626
G1 X105.677 Y122.776 E0.02036
G1 X103.057 Y118.111 E0.16776
G1 X102.861 Y117.641 E0.01597
G1 X100.861 Y105.684 E0.38010
G1 X100.843 Y89.905 E0.49473
G1 X101.039 Y89.048 E0.02755
G1 X101.496 Y88.374 E0.02555
; printing object insert-momentary v1.stl id:0 copy 0
;WIPE_START
G1 F8640.000
G1 X102.232 Y87.834 E-0.21068
G1 X103.058 Y87.625 E-0.19682
G1 X104.581 Y87.524 E-0.35250
;WIPE_END
G1 E-0.04000 F2100.000
G1 Z0.600 F10800.000
G1 X103.219 Y89.996
G1 Z0.200
G1 E0.80000 F2100.000
;TYPE:Support material
G1 F1200.000
G1 X103.219 Y105.378 E0.48228
G1 X103.973 Y105.378 E0.02365
G1 X103.973 Y90.166 E0.47696
G1 X104.727 Y90.166 E0.02365
G1 X104.727 Y105.378 E0.47696
G1 X105.140 Y105.378 E0.01295
G1 X105.140 Y116.967 E0.36337
G1 X105.481 Y116.967 E0.01069
G1 X105.481 Y90.166 E0.84032
G1 X106.235 Y90.166 E0.02365
G1 X106.235 Y116.967 E0.84032
G1 X106.990 Y116.967 E0.02365
G1 X106.990 Y90.166 E0.84032
G1 X107.744 Y90.166 E0.02365
G1 X107.744 Y121.603 E0.98567
G1 X108.498 Y121.603 E0.02365
G1 X108.498 Y105.073 E0.51828
G1 X109.252 Y105.073 E0.02365
G1 X109.252 Y121.603 E0.51827
G1 X110.006 Y121.603 E0.02365
G1 X110.006 Y105.073 E0.51827
G1 X110.760 Y105.073 E0.02365
G1 X110.760 Y121.603 E0.51827
G1 X111.515 Y121.603 E0.02365
G1 X111.515 Y103.559 E0.56575
G1 X112.269 Y103.511 E0.02369
G1 X112.269 Y121.603 E0.56726
G1 X113.023 Y121.603 E0.02365
G1 X113.023 Y103.463 E0.56876
G1 X113.777 Y103.415 E0.02369
G1 X113.777 Y121.603 E0.57027
G1 X114.531 Y121.603 E0.02365
G1 X114.531 Y103.367 E0.57178
G1 X115.285 Y103.319 E0.02369
G1 X115.285 Y121.772 E0.57860
G1 X117.548 Y121.772 F10800.000
G1 F1200.000
G1 X117.548 Y108.709 E0.40960
M73 P0 R71
G1 X116.794 Y108.709 E0.02365
G1 X116.794 Y121.603 E0.40428
G1 X116.039 Y121.603 E0.02365
G1 X116.039 Y108.709 E0.40428
G1 X115.716 Y108.709 E0.01013
G1 X115.716 Y107.696 E0.03176
G1 X116.039 Y107.696 E0.01013
G1 X116.039 Y103.271 E0.13875
G1 X116.794 Y103.223 E0.02369
G1 X116.794 Y107.696 E0.14025
G1 X117.548 Y107.696 E0.02365
G1 X117.548 Y103.175 E0.14176
G1 X118.302 Y103.126 E0.02369
G1 X118.302 Y107.696 E0.14327
G1 X119.056 Y107.696 E0.02365
G1 X119.056 Y103.078 E0.14477
G1 X119.810 Y103.030 E0.02369
G1 X119.810 Y107.696 E0.14628
G1 X120.564 Y107.696 E0.02365
G1 X120.564 Y102.982 E0.14778
G1 X121.319 Y102.934 E0.02369
G1 X121.319 Y107.696 E0.14929
G1 X122.073 Y107.696 E0.02365
G1 X122.073 Y102.886 E0.15080
G1 X122.827 Y102.838 E0.02369
G1 X122.827 Y107.696 E0.15230
G1 X123.581 Y107.696 E0.02365
G1 X123.581 Y102.790 E0.15381
G1 X124.335 Y102.742 E0.02369
G1 X124.335 Y107.696 E0.15532
G1 X125.089 Y107.696 E0.02365
G1 X125.089 Y102.694 E0.15682
G1 X125.844 Y102.646 E0.02369
G1 X125.844 Y107.696 E0.15833
G1 X126.598 Y107.696 E0.02365
G1 X126.598 Y102.598 E0.15983
G1 X127.352 Y102.550 E0.02369
G1 X127.352 Y107.696 E0.16134
G1 X128.106 Y107.696 E0.02365
G1 X128.106 Y102.502 E0.16285
G1 X128.860 Y102.454 E0.02369
G1 X128.860 Y107.696 E0.16435
G1 X129.614 Y107.696 E0.02365
G1 X129.614 Y102.406 E0.16586
G1 X130.368 Y102.358 E0.02369
G1 X130.368 Y107.696 E0.16736
G1 X131.123 Y107.696 E0.02365
G1 X131.123 Y102.310 E0.16887
G1 X131.877 Y102.262 E0.02369
G1 X131.877 Y107.696 E0.17038
G1 X132.631 Y107.696 E0.02365
G1 X132.631 Y102.214 E0.17188
G1 X133.385 Y102.166 E0.02369
G1 X133.385 Y116.967 E0.46408
M73 P1 R71
M73 Q1 S72
G1 X134.139 Y116.967 E0.02365
G1 X134.139 Y102.118 E0.46559
G1 X134.893 Y102.070 E0.02369
G1 X134.893 Y116.967 E0.46709
G1 X135.272 Y116.967 E0.01186
G1 X135.272 Y119.285 E0.07267
G1 X135.648 Y119.285 E0.01178
G1 X135.648 Y102.022 E0.54127
G1 X136.402 Y101.974 E0.02369
G1 X136.402 Y119.285 E0.54278
G1 X137.156 Y119.285 E0.02365
G1 X137.156 Y101.926 E0.54429
G1 X137.910 Y101.878 E0.02369
G1 X137.910 Y119.285 E0.54579
G1 X138.664 Y119.285 E0.02365
G1 X138.664 Y101.830 E0.54730
G1 X139.418 Y101.781 E0.02369
G1 X139.418 Y119.285 E0.54880
G1 X140.173 Y119.285 E0.02365
G1 X140.173 Y101.733 E0.55031
G1 X140.212 Y101.731 E0.00125
G1 X140.212 Y102.755 E0.03211
G1 X140.927 Y102.755 E0.02240
G1 X140.927 Y119.285 E0.51828
G1 X141.681 Y119.285 E0.02365
G1 X141.681 Y102.755 E0.51827
G1 X142.435 Y102.755 E0.02365
G1 X142.435 Y119.285 E0.51827
G1 X143.189 Y119.285 E0.02365
G1 X143.189 Y87.848 E0.98567
G1 X143.530 Y87.848 E0.01069
G1 X143.530 Y90.166 E0.07267
G1 X143.943 Y90.166 E0.01296
G1 X143.943 Y116.967 E0.84032
M73 Q1 S71
G1 X144.698 Y116.967 E0.02365
G1 X144.698 Y90.166 E0.84032
G1 X145.452 Y90.166 E0.02365
G1 X145.452 Y117.137 E0.84564
;WIPE_START
G1 F8640.000
G1 X145.452 Y113.845 E-0.76000
;WIPE_END
G1 E-0.04000 F2100.000
G1 Z0.600 F10800.000
G1 X140.905 Y102.551
G1 Z0.200
G1 E0.80000 F2100.000
;TYPE:Support material interface
;WIDTH:0.35
G1 F1200.000
G1 X140.905 Y100.090 E0.06283
G1 X141.423 Y100.090 E0.01322
G1 X141.423 Y102.408 E0.05918
G1 X141.941 Y102.408 E0.01322
G1 X141.941 Y100.090 E0.05918
G1 X142.459 Y100.090 E0.01322
G1 X142.459 Y102.551 E0.06283
;WIPE_START
G1 F8640.000
G1 X142.459 Y100.090 E-0.56822
G1 X141.941 Y100.090 E-0.11956
G1 X141.941 Y100.403 E-0.07222
;WIPE_END
G1 E-0.04000 F2100.000
G1 Z0.600 F10800.000
G1 X142.435 Y99.912
G1 Z0.200
G1 E0.80000 F2100.000
;TYPE:Support material
;WIDTH:0.42
G1 F1200.000
G1 X142.435 Y87.848 E0.37825
G1 X141.681 Y87.848 E0.02365
G1 X141.681 Y99.742 E0.37293
G1 X140.927 Y99.742 E0.02365
G1 X140.927 Y87.848 E0.37293
G1 X140.173 Y87.848 E0.02365
G1 X140.173 Y90.471 E0.08224
G1 X139.418 Y90.471 E0.02365
G1 X139.418 Y87.848 E0.08224
G1 X138.664 Y87.848 E0.02365
G1 X138.664 Y90.471 E0.08223
G1 X137.910 Y90.471 E0.02365
G1 X137.910 Y87.848 E0.08223
G1 X137.156 Y87.848 E0.02365
G1 X137.156 Y91.960 E0.12892
G1 X136.402 Y92.008 E0.02369
G1 X136.402 Y87.848 E0.13042
G1 X135.648 Y87.848 E0.02365
G1 X135.648 Y92.226 E0.13726
;WIPE_START
G1 F8640.000
G1 X135.648 Y88.935 E-0.76000
;WIPE_END
G1 E-0.04000 F2100.000
G1 Z0.600 F10800.000
G1 X135.648 Y93.970
G1 Z0.200
G1 E0.80000 F2100.000
G1 F1200.000
G1 X135.648 Y94.901 E0.02920
G1 X136.402 Y94.901 E0.02365
G1 X136.402 Y94.092 E0.02538
G1 X137.156 Y94.044 E0.02369
G1 X137.156 Y95.071 E0.03220
;WIPE_START
G1 F8640.000
G1 X137.156 Y94.044 E-0.23716
G1 X136.402 Y94.092 E-0.17449
G1 X136.402 Y94.901 E-0.18689
G1 X135.702 Y94.901 E-0.16147
;WIPE_END
G1 E-0.04000 F2100.000
G1 Z0.600 F10800.000
G1 X138.316 Y90.676
G1 Z0.200
G1 E0.80000 F2100.000
;TYPE:Support material interface
;WIDTH:0.35
G1 F1200.000
G1 X138.316 Y91.916 E0.03167
G1 X138.834 Y91.883 E0.01325
G1 X138.834 Y90.819 E0.02717
G1 X139.352 Y90.819 E0.01322
G1 X139.352 Y91.861 E0.02661
G1 X139.869 Y91.828 E0.01325
G1 X139.869 Y90.819 E0.02577
G1 X140.387 Y90.819 E0.01322
G1 X140.387 Y99.587 E0.22389
;WIPE_START
G1 F8640.000
G1 X140.387 Y96.296 E-0.76000
;WIPE_END
G1 E-0.04000 F2100.000
G1 Z0.600 F10800.000
G1 X140.173 Y100.770
G1 Z0.200
G1 E0.80000 F2100.000
;TYPE:Support material
;WIDTH:0.42
G1 F1200.000
G1 X140.173 Y99.568 E0.03771
G1 X139.867 Y98.276 E0.04163
G1 X139.657 Y97.698 E0.01926
G1 X140.064 Y97.625 E0.01296
G1 X139.674 Y95.944 E0.05410
G1 X139.462 Y95.356 E0.01958
G1 X139.914 Y95.274 E0.01443
G1 X139.587 Y93.889 E0.04464
G1 X139.418 Y93.900 E0.00530
G1 X139.418 Y99.373 E0.17162
G1 X138.664 Y99.421 E0.02369
G1 X138.664 Y93.948 E0.17162
G1 X137.910 Y93.996 E0.02369
G1 X137.910 Y99.469 E0.17162
G1 X137.156 Y99.517 E0.02369
G1 X137.156 Y98.931 E0.01839
G1 X136.402 Y98.979 E0.02369
G1 X136.402 Y99.565 E0.01839
G1 X135.648 Y99.613 E0.02369
G1 X135.648 Y99.027 E0.01839
G1 X134.893 Y99.075 E0.02369
G1 X134.893 Y99.661 E0.01839
G1 X134.139 Y99.709 E0.02369
G1 X134.139 Y99.123 E0.01839
G1 X133.385 Y99.171 E0.02369
G1 X133.385 Y99.757 E0.01839
G1 X132.631 Y99.805 E0.02369
G1 X132.631 Y99.219 E0.01839
G1 X131.877 Y99.267 E0.02369
G1 X131.877 Y99.854 E0.01839
G1 X131.123 Y99.902 E0.02369
G1 X131.123 Y99.315 E0.01839
G1 X130.368 Y99.363 E0.02369
G1 X130.368 Y99.950 E0.01839
G1 X129.614 Y99.998 E0.02369
G1 X129.614 Y99.411 E0.01839
G1 X128.860 Y99.459 E0.02369
G1 X128.860 Y100.046 E0.01839
G1 X128.106 Y100.094 E0.02369
G1 X128.106 Y99.507 E0.01839
G1 X127.352 Y99.555 E0.02369
G1 X127.352 Y100.142 E0.01839
G1 X126.598 Y100.190 E0.02369
G1 X126.598 Y99.603 E0.01839
G1 X125.844 Y99.651 E0.02369
G1 X125.844 Y100.238 E0.01839
G1 X125.089 Y100.286 E0.02369
G1 X125.089 Y99.699 E0.01839
G1 X124.335 Y99.747 E0.02369
G1 X124.335 Y100.334 E0.01839
G1 X123.581 Y100.382 E0.02369
G1 X123.581 Y99.795 E0.01839
G1 X122.827 Y99.843 E0.02369
G1 X122.827 Y100.430 E0.01839
G1 X122.073 Y100.478 E0.02369
G1 X122.073 Y99.891 E0.01839
G1 X121.319 Y99.940 E0.02369
G1 X121.319 Y100.526 E0.01839
G1 X120.564 Y100.574 E0.02369
G1 X120.564 Y99.988 E0.01839
G1 X119.810 Y100.036 E0.02369
G1 X119.810 Y100.622 E0.01839
G1 X119.056 Y100.670 E0.02369
G1 X119.056 Y100.084 E0.01839
G1 X118.302 Y100.132 E0.02369
G1 X118.302 Y100.718 E0.01839
G1 X117.548 Y100.766 E0.02369
G1 X117.548 Y100.180 E0.01839
G1 X116.794 Y100.228 E0.02369
G1 X116.794 Y100.814 E0.01839
G1 X116.039 Y100.862 E0.02369
G1 X116.039 Y100.276 E0.01839
G1 X115.285 Y100.324 E0.02369
G1 X115.285 Y100.910 E0.01839
G1 X114.531 Y100.958 E0.02369
G1 X114.531 Y100.372 E0.01839
G1 X113.777 Y100.420 E0.02369
G1 X113.777 Y101.006 E0.01839
G1 X113.023 Y101.054 E0.02369
G1 X113.023 Y100.468 E0.01839
G1 X112.269 Y100.516 E0.02369
G1 X112.269 Y101.102 E0.01839
G1 X111.515 Y101.150 E0.02369
G1 X111.515 Y100.564 E0.01839
G1 X110.763 Y100.612 E0.02361
G1 X110.763 Y96.652 E0.12414
G1 X111.515 Y96.652 E0.02356
G1 X111.515 Y95.677 E0.03059
G1 X112.269 Y95.629 E0.02369
G1 X112.269 Y96.652 E0.03209
G1 X113.023 Y96.652 E0.02365
G1 X113.023 Y95.411 E0.03893
;WIPE_START
G1 F8640.000
G1 X113.023 Y96.652 E-0.28669
G1 X112.269 Y96.652 E-0.17414
G1 X112.269 Y95.629 E-0.23634
G1 X111.997 Y95.646 E-0.06283
;WIPE_END
G1 E-0.04000 F2100.000
G1 Z0.600 F10800.000
G1 X113.023 Y93.667
G1 Z0.200
G1 E0.80000 F2100.000
G1 F1200.000
G1 X113.023 Y90.166 E0.10977
G1 X112.269 Y90.166 E0.02365
G1 X112.269 Y93.545 E0.10594
G1 X111.515 Y93.593 E0.02369
G1 X111.515 Y90.166 E0.10745
G1 X110.760 Y90.166 E0.02365
G1 X110.760 Y92.789 E0.08224
G1 X110.006 Y92.789 E0.02365
G1 X110.006 Y90.166 E0.08224
G1 X109.252 Y90.166 E0.02365
G1 X109.252 Y92.789 E0.08224
G1 X108.498 Y92.789 E0.02365
G1 X108.498 Y89.996 E0.08755
;WIPE_START
G1 F8640.000
G1 X108.498 Y92.789 E-0.64478
G1 X108.997 Y92.789 E-0.11522
;WIPE_END
G1 E-0.04000 F2100.000
G1 Z0.600 F10800.000
G1 X110.354 Y93.840
G1 Z0.200
G1 E0.80000 F2100.000
;TYPE:Support material interface
;WIDTH:0.35
G1 F1200.000
G1 X110.354 Y93.136 E0.01797
G1 X109.837 Y93.136 E0.01322
G1 X109.837 Y93.730 E0.01515
G1 X109.319 Y93.763 E0.01325
G1 X109.319 Y93.136 E0.01599
G1 X108.801 Y93.136 E0.01322
G1 X108.801 Y93.950 E0.02078
;WIPE_START
G1 F8640.000
G1 X108.801 Y93.136 E-0.18789
G1 X109.319 Y93.136 E-0.11956
G1 X109.319 Y93.763 E-0.14461
G1 X109.837 Y93.730 E-0.11981
G1 X109.837 Y93.136 E-0.13700
G1 X110.058 Y93.136 E-0.05113
;WIPE_END
G1 E-0.04000 F2100.000
G1 Z0.600 F10800.000
G1 X108.283 Y92.993
G1 Z0.200
G1 E0.80000 F2100.000
G1 F1200.000
G1 X108.283 Y104.868 E0.30322
G1 X108.801 Y104.868 F10800.000
G1 F1200.000
G1 X108.801 Y97.441 E0.18965
;WIPE_START
G1 F8640.000
G1 X108.801 Y100.732 E-0.76000
;WIPE_END
G1 E-0.04000 F2100.000
G1 Z0.600 F10800.000
G1 X109.252 Y95.651
G1 Z0.200
G1 E0.80000 F2100.000
;TYPE:Support material
;WIDTH:0.42
G1 F1200.000
G1 X109.252 Y99.602 E0.12389
G1 X109.535 Y99.617 E0.00887
G1 X109.400 Y100.216 E0.01926
G1 X109.252 Y101.620 E0.04425
G1 X109.252 Y102.674 E0.03304
G1 X109.435 Y101.858 E0.02622
G1 X109.474 Y101.775 E0.00288
G1 X109.821 Y101.331 E0.01765
G1 X110.006 Y101.247 E0.00639
G1 X110.006 Y95.773 E0.17162
G1 X110.760 Y95.725 E0.02369
G1 X110.760 Y101.369 E0.17695
;WIPE_START
G1 F8640.000
G1 X110.760 Y98.077 E-0.76000
;WIPE_END
G1 E-0.04000 F2100.000
G1 Z0.600 F10800.000
G1 X109.319 Y103.537
G1 Z0.200
G1 E0.80000 F2100.000
;TYPE:Support material interface
;WIDTH:0.35
G1 F1200.000
G1 X109.319 Y104.725 E0.03035
G1 X109.837 Y104.725 E0.01322
G1 X109.837 Y103.647 E0.02753
G1 X110.354 Y103.614 E0.01325
G1 X110.354 Y104.868 E0.03203
;WIPE_START
G1 F8640.000
G1 X110.354 Y103.614 E-0.28963
G1 X109.837 Y103.647 E-0.11981
G1 X109.837 Y104.725 E-0.24899
G1 X109.397 Y104.725 E-0.10157
;WIPE_END
G1 E-0.04000 F2100.000
G1 Z0.600 F10800.000
G1 X116.794 Y96.433
G1 Z0.200
G1 E0.80000 F2100.000
;TYPE:Support material
;WIDTH:0.42
G1 F1200.000
G1 X116.794 Y95.341 E0.03424
G1 X117.548 Y95.293 E0.02369
G1 X117.548 Y96.215 E0.02891
G1 X118.302 Y96.167 E0.02369
G1 X118.302 Y95.245 E0.02891
G1 X119.056 Y95.197 E0.02369
G1 X119.056 Y96.119 E0.02891
G1 X119.810 Y96.071 E0.02369
G1 X119.810 Y95.149 E0.02891
G1 X120.564 Y95.101 E0.02369
G1 X120.564 Y96.023 E0.02891
G1 X121.319 Y95.975 E0.02369
G1 X121.319 Y95.052 E0.02891
G1 X122.073 Y95.004 E0.02369
G1 X122.073 Y95.927 E0.02891
G1 X122.827 Y95.879 E0.02369
G1 X122.827 Y94.956 E0.02891
G1 X123.581 Y94.908 E0.02369
G1 X123.581 Y95.831 E0.02891
G1 X124.335 Y95.783 E0.02369
G1 X124.335 Y94.860 E0.02891
G1 X125.089 Y94.812 E0.02369
G1 X125.089 Y95.734 E0.02891
G1 X125.844 Y95.686 E0.02369
G1 X125.844 Y94.764 E0.02891
G1 X126.598 Y94.716 E0.02369
G1 X126.598 Y95.808 E0.03424
;WIPE_START
G1 F8640.000
G1 X126.598 Y94.716 E-0.25219
G1 X125.844 Y94.764 E-0.17449
G1 X125.844 Y95.686 E-0.21293
G1 X125.323 Y95.720 E-0.12039
;WIPE_END
G1 E-0.04000 F2100.000
G1 Z0.600 F10800.000
G1 X126.598 Y92.802
G1 Z0.200
G1 E0.80000 F2100.000
G1 F1200.000
G1 X126.598 Y90.166 E0.08266
G1 X125.844 Y90.166 E0.02365
G1 X125.844 Y92.680 E0.07883
G1 X125.089 Y92.728 E0.02369
G1 X125.089 Y90.166 E0.08034
G1 X124.335 Y90.166 E0.02365
G1 X124.335 Y92.777 E0.08185
G1 X123.581 Y92.825 E0.02369
G1 X123.581 Y90.166 E0.08335
G1 X122.827 Y90.166 E0.02365
G1 X122.827 Y92.873 E0.08486
G1 X122.073 Y92.921 E0.02369
G1 X122.073 Y90.166 E0.08637
