; generated by PrusaSlicer 2.3.3+x64 on 2022-02-22 at 05:27:08 UTC

; 

; external perimeters extrusion width = 0.45mm
; perimeters extrusion width = 0.45mm
; infill extrusion width = 0.45mm
; solid infill extrusion width = 0.45mm
; top infill extrusion width = 0.40mm
; support material extrusion width = 0.35mm
; first layer extrusion width = 0.42mm

M73 P0 R48
M73 Q0 S49
M201 X1000 Y1000 Z200 E5000 ; sets maximum accelerations, mm/sec^2
M203 X200 Y200 Z12 E120 ; sets maximum feedrates, mm/sec
M204 P1250 R1250 T1250 ; sets acceleration (P, T) and retract acceleration (R), mm/sec^2
M205 X8.00 Y8.00 Z0.40 E4.50 ; sets the jerk limits, mm/sec
M205 S0 T0 ; sets the minimum extruding and travel feed rate, mm/sec
M107
;TYPE:Custom
M862.3 P "MK3" ; printer model check
M862.1 P0.4 ; nozzle diameter check
M115 U3.10.0 ; tell printer latest fw version
G90 ; use absolute coordinates
M83 ; extruder relative mode
M104 S215 ; set extruder temp
M140 S60 ; set bed temp
M190 S60 ; wait for bed temp
M109 S215 ; wait for extruder temp
G28 W ; home all without mesh bed level
G80 ; mesh bed leveling
G1 Y-3.0 F1000.0 ; go outside print area
G92 E0.0
G1 X60.0 E9.0 F1000.0 ; intro line
G1 X100.0 E12.5 F1000.0 ; intro line
G92 E0.0
M221 S95

; Don't change E values below. Excessive value can damage the printer.
M907 E430 ; set extruder motor current
G21 ; set units to millimeters
G90 ; use absolute coordinates
M83 ; use relative distances for extrusion
M900 K0.05 ; Filament gcode LA 1.5
M900 K30 ; Filament gcode LA 1.0
;LAYER_CHANGE
;Z:0.2
;HEIGHT:0.2
;BEFORE_LAYER_CHANGE
G92 E0.0
;0.2


G1 E-0.80000 F2100.000
G1 Z0.400 F10800.000
;AFTER_LAYER_CHANGE
;0.2
G1 X115.488 Y106.118
G1 Z0.200
G1 E0.80000 F2100.000
M204 S1000
;TYPE:Skirt
;WIDTH:0.42
G1 F1200.000
G1 X116.246 Y105.630 E0.02825
G1 X117.134 Y105.459 E0.02837
G1 X124.879 Y105.638 E0.24289
M73 Q0 S48
G1 X146.064 Y107.963 E0.66824
G1 X146.568 Y108.078 E0.01621
G1 X147.035 Y108.299 E0.01621
G1 X147.444 Y108.616 E0.01621
G1 X147.774 Y109.014 E0.01621
G1 X148.063 Y109.629 E0.02130
G1 X148.167 Y110.301 E0.02130
G1 X148.166 Y148.921 E1.21093
G1 X148.087 Y149.493 E0.01811
G1 X147.874 Y150.026 E0.01799
G1 X147.539 Y150.492 E0.01799
G1 X147.100 Y150.867 E0.01811
G1 X146.601 Y151.118 E0.01752
G1 X146.057 Y151.245 E0.01752
G1 X124.796 Y153.405 E0.67005
G1 X116.911 Y153.568 E0.24728
G1 X116.390 Y153.460 E0.01668
G1 X115.910 Y153.240 E0.01657
G1 X115.489 Y152.920 E0.01657
G1 X115.148 Y152.511 E0.01668
G1 X114.857 Y151.893 E0.02142
G1 X114.755 Y151.221 E0.02130
G1 X114.757 Y107.737 E1.36342
G1 X114.966 Y106.857 E0.02837
G1 X115.454 Y106.167 E0.02649
; printing object insert v3.stl id:0 copy 0
;WIPE_START
G1 F8640.000
G1 X116.246 Y105.630 E-0.22097
G1 X117.134 Y105.459 E-0.20892
G1 X118.564 Y105.492 E-0.33011
;WIPE_END
G1 E-0.04000 F2100.000
G1 Z0.600 F10800.000
G1 X117.132 Y107.836
G1 Z0.200
G1 E0.80000 F2100.000
;TYPE:Support material
G1 F1200.000
G1 X117.132 Y120.900 E0.40960
G1 X117.886 Y120.900 E0.02365
G1 X117.886 Y108.006 E0.40428
G1 X118.640 Y108.006 E0.02365
G1 X118.640 Y120.900 E0.40428
G1 X119.394 Y120.900 E0.02365
G1 X119.394 Y108.006 E0.40428
G1 X120.148 Y108.006 E0.02365
G1 X120.148 Y112.946 E0.15491
G1 X120.902 Y112.946 E0.02365
G1 X120.902 Y108.006 E0.15491
G1 X121.657 Y108.006 E0.02365
G1 X121.657 Y112.946 E0.15491
G1 X122.411 Y112.946 E0.02365
G1 X122.411 Y108.006 E0.15491
G1 X123.165 Y108.006 E0.02365
G1 X123.165 Y112.946 E0.15491
G1 X123.919 Y112.946 E0.02365
G1 X123.919 Y108.006 E0.15491
G1 X124.673 Y108.006 E0.02365
G1 X124.673 Y112.946 E0.15491
G1 X125.427 Y112.946 E0.02365
G1 X125.427 Y110.324 E0.08223
G1 X126.181 Y110.324 E0.02365
G1 X126.181 Y112.946 E0.08223
G1 X126.936 Y112.946 E0.02365
G1 X126.936 Y110.324 E0.08223
G1 X127.690 Y110.324 E0.02365
G1 X127.690 Y112.946 E0.08223
G1 X128.444 Y112.946 E0.02365
G1 X128.444 Y110.324 E0.08224
G1 X129.198 Y110.324 E0.02365
G1 X129.198 Y112.946 E0.08224
G1 X129.952 Y112.946 E0.02365
G1 X129.952 Y110.324 E0.08224
G1 X130.706 Y110.324 E0.02365
G1 X130.706 Y112.946 E0.08224
G1 X131.461 Y112.946 E0.02365
G1 X131.461 Y110.324 E0.08224
G1 X132.215 Y110.324 E0.02365
G1 X132.215 Y148.714 E1.20369
G1 X132.969 Y148.714 E0.02365
G1 X132.969 Y110.324 E1.20369
G1 X133.723 Y110.324 E0.02365
G1 X133.723 Y148.714 E1.20369
G1 X134.477 Y148.714 E0.02365
G1 X134.477 Y110.324 E1.20369
M73 P1 R48
M73 Q1 S48
G1 X135.231 Y110.324 E0.02365
G1 X135.231 Y120.900 E0.33161
G1 X135.986 Y120.900 E0.02365
G1 X135.986 Y110.324 E0.33161
G1 X136.740 Y110.324 E0.02365
G1 X136.740 Y120.900 E0.33161
G1 X137.494 Y120.900 E0.02365
G1 X137.494 Y110.324 E0.33161
G1 X138.248 Y110.324 E0.02365
G1 X138.248 Y120.900 E0.33161
G1 X139.002 Y120.900 E0.02365
G1 X139.002 Y110.324 E0.33161
G1 X139.756 Y110.324 E0.02365
G1 X139.756 Y120.900 E0.33161
G1 X140.510 Y120.900 E0.02365
G1 X140.510 Y110.324 E0.33161
G1 X141.265 Y110.324 E0.02365
G1 X141.265 Y120.900 E0.33161
G1 X142.019 Y120.900 E0.02365
G1 X142.019 Y110.324 E0.33161
G1 X142.773 Y110.324 E0.02365
G1 X142.773 Y120.900 E0.33161
G1 X143.527 Y120.900 E0.02365
G1 X143.527 Y110.324 E0.33161
G1 X144.281 Y110.324 E0.02365
G1 X144.281 Y120.900 E0.33161
G1 X145.035 Y120.900 E0.02365
G1 X145.035 Y110.324 E0.33161
G1 X145.790 Y110.324 E0.02365
G1 X145.790 Y121.070 E0.33693
;WIPE_START
G1 F8640.000
G1 X145.790 Y117.778 E-0.76000
;WIPE_END
G1 E-0.04000 F2100.000
G1 Z0.600 F10800.000
G1 X129.389 Y114.123
G1 Z0.200
G1 E0.80000 F2100.000
;TYPE:Support material interface
;WIDTH:0.35
G1 F1200.000
G1 X129.389 Y113.294 E0.02117
G1 X128.872 Y113.294 E0.01322
G1 X128.872 Y113.980 E0.01752
G1 X128.354 Y113.980 E0.01322
G1 X128.354 Y113.294 E0.01752
G1 X127.836 Y113.294 E0.01322
G1 X127.836 Y113.980 E0.01752
G1 X127.318 Y113.980 E0.01322
G1 X127.318 Y113.294 E0.01752
G1 X126.800 Y113.294 E0.01322
G1 X126.800 Y113.980 E0.01752
G1 X126.282 Y113.980 E0.01322
G1 X126.282 Y113.294 E0.01752
G1 X125.765 Y113.294 E0.01322
G1 X125.765 Y113.980 E0.01752
G1 X125.247 Y113.980 E0.01322
G1 X125.247 Y113.294 E0.01752
G1 X124.729 Y113.294 E0.01322
G1 X124.729 Y113.980 E0.01752
G1 X124.211 Y113.980 E0.01322
G1 X124.211 Y113.294 E0.01752
G1 X123.693 Y113.294 E0.01322
G1 X123.693 Y113.980 E0.01752
G1 X123.176 Y113.980 E0.01322
G1 X123.176 Y113.294 E0.01752
G1 X122.658 Y113.294 E0.01322
G1 X122.658 Y113.980 E0.01752
G1 X122.140 Y113.980 E0.01322
G1 X122.140 Y113.294 E0.01752
G1 X121.622 Y113.294 E0.01322
G1 X121.622 Y113.341 E0.00121
G1 X121.104 Y113.341 E0.01322
G1 X121.104 Y113.294 E0.00121
G1 X120.587 Y113.294 E0.01322
G1 X120.587 Y113.341 E0.00121
G1 X120.197 Y113.341 E0.00994
G1 X120.069 Y113.470 E0.00464
G1 X120.069 Y113.151 E0.00814
G1 X120.902 Y113.519 F10800.000
;TYPE:Support material
;WIDTH:0.42
G1 F1200.000
G1 X120.902 Y113.919 E0.01254
;WIPE_START
G1 F8640.000
G1 X120.902 Y113.519 E-0.09235
;WIPE_END
G1 E-0.70765 F2100.000
G1 Z0.600 F10800.000
G1 X122.411 Y121.069
G1 Z0.200
G1 E0.80000 F2100.000
G1 F1200.000
G1 X122.411 Y114.328 E0.21139
G1 X123.165 Y114.328 E0.02365
G1 X123.165 Y115.946 E0.05076
G1 X123.919 Y115.946 E0.02365
G1 X123.919 Y114.328 E0.05076
G1 X124.673 Y114.328 E0.02365
G1 X124.673 Y115.946 E0.05076
G1 X125.427 Y115.946 E0.02365
G1 X125.427 Y114.328 E0.05076
G1 X126.181 Y114.328 E0.02365
G1 X126.181 Y115.946 E0.05076
G1 X126.936 Y115.946 E0.02365
G1 X126.936 Y114.328 E0.05076
G1 X127.690 Y114.328 E0.02365
G1 X127.690 Y115.946 E0.05076
G1 X128.444 Y115.946 E0.02365
G1 X128.444 Y114.328 E0.05076
G1 X129.198 Y114.328 E0.02365
G1 X129.198 Y144.879 E0.95793
G1 X128.444 Y144.879 F10800.000
G1 F1200.000
G1 X128.444 Y143.091 E0.05608
G1 X127.690 Y143.091 E0.02365
G1 X127.690 Y144.710 E0.05076
G1 X126.936 Y144.710 E0.02365
G1 X126.936 Y143.091 E0.05076
G1 X126.181 Y143.091 E0.02365
G1 X126.181 Y144.710 E0.05076
G1 X125.427 Y144.710 E0.02365
G1 X125.427 Y143.091 E0.05076
G1 X124.673 Y143.091 E0.02365
G1 X124.673 Y144.710 E0.05076
G1 X123.919 Y144.710 E0.02365
G1 X123.919 Y143.091 E0.05076
G1 X123.165 Y143.091 E0.02365
G1 X123.165 Y144.710 E0.05076
G1 X122.411 Y144.710 E0.02365
G1 X122.411 Y137.968 E0.21139
;WIPE_START
G1 F8640.000
G1 X122.411 Y141.259 E-0.76000
;WIPE_END
G1 E-0.04000 F2100.000
G1 Z0.600 F10800.000
G1 X120.069 Y140.965
G1 Z0.200
G1 E0.80000 F2100.000
;TYPE:Support material interface
;WIDTH:0.35
G1 F1200.000
G1 X120.069 Y145.743 E0.12202
G1 X120.587 Y145.743 E0.01322
G1 X120.587 Y145.696 E0.00121
G1 X121.104 Y145.696 E0.01322
G1 X121.104 Y145.743 E0.00121
G1 X121.622 Y145.743 E0.01322
G1 X121.622 Y145.696 E0.00121
G1 X121.765 Y145.696 E0.00365
G1 X121.990 Y145.471 E0.00812
G1 X121.990 Y145.057 E0.01057
G1 X122.140 Y145.057 E0.00383
G1 X122.140 Y145.743 E0.01752
G1 X122.658 Y145.743 E0.01322
G1 X122.658 Y145.057 E0.01752
G1 X123.176 Y145.057 E0.01322
G1 X123.176 Y145.743 E0.01752
G1 X123.693 Y145.743 E0.01322
G1 X123.693 Y145.057 E0.01752
G1 X124.211 Y145.057 E0.01322
G1 X124.211 Y145.743 E0.01752
G1 X124.729 Y145.743 E0.01322
G1 X124.729 Y145.057 E0.01752
G1 X125.247 Y145.057 E0.01322
G1 X125.247 Y145.743 E0.01752
G1 X125.765 Y145.743 E0.01322
G1 X125.765 Y145.057 E0.01752
G1 X126.282 Y145.057 E0.01322
G1 X126.282 Y145.743 E0.01752
G1 X126.800 Y145.743 E0.01322
G1 X126.800 Y145.057 E0.01752
G1 X127.318 Y145.057 E0.01322
G1 X127.318 Y145.743 E0.01752
G1 X127.836 Y145.743 E0.01322
G1 X127.836 Y145.057 E0.01752
G1 X128.354 Y145.057 E0.01322
G1 X128.354 Y145.743 E0.01752
G1 X128.872 Y145.743 E0.01322
G1 X128.872 Y145.057 E0.01752
G1 X129.389 Y145.057 E0.01322
G1 X129.389 Y145.743 E0.01752
G1 X129.907 Y145.743 E0.01322
G1 X129.907 Y113.294 E0.82856
G1 X130.425 Y113.294 E0.01322
G1 X130.425 Y145.743 E0.82856
M73 P1 R47
G1 X130.943 Y145.743 E0.01322
G1 X130.943 Y113.294 E0.82856
G1 X131.461 Y113.294 E0.01322
G1 X131.461 Y145.886 E0.83221
;WIPE_START
G1 F8640.000
G1 X131.461 Y142.595 E-0.76000
;WIPE_END
G1 E-0.04000 F2100.000
G1 Z0.600 F10800.000
G1 X131.461 Y148.883
G1 Z0.200
G1 E0.80000 F2100.000
;TYPE:Support material
;WIDTH:0.42
G1 F1200.000
G1 X131.461 Y146.091 E0.08755
G1 X130.706 Y146.091 E0.02365
G1 X130.706 Y148.714 E0.08223
G1 X129.952 Y148.714 E0.02365
G1 X129.952 Y146.091 E0.08223
G1 X129.198 Y146.091 E0.02365
G1 X129.198 Y148.714 E0.08223
G1 X128.444 Y148.714 E0.02365
G1 X128.444 Y146.091 E0.08223
G1 X127.690 Y146.091 E0.02365
G1 X127.690 Y148.714 E0.08223
G1 X126.936 Y148.714 E0.02365
G1 X126.936 Y146.091 E0.08223
G1 X126.181 Y146.091 E0.02365
G1 X126.181 Y148.714 E0.08223
G1 X125.427 Y148.714 E0.02365
G1 X125.427 Y146.091 E0.08223
G1 X124.673 Y146.091 E0.02365
G1 X124.673 Y151.031 E0.15491
G1 X123.919 Y151.031 E0.02365
G1 X123.919 Y146.091 E0.15491
G1 X123.165 Y146.091 E0.02365
G1 X123.165 Y151.031 E0.15491
G1 X122.411 Y151.031 E0.02365
G1 X122.411 Y146.091 E0.15491
G1 X121.657 Y146.091 E0.02365
G1 X121.657 Y151.031 E0.15491
G1 X120.902 Y151.031 E0.02365
G1 X120.902 Y146.091 E0.15491
G1 X120.148 Y146.091 E0.02365
G1 X120.148 Y151.031 E0.15491
M73 Q2 S48
G1 X119.394 Y151.031 E0.02365
G1 X119.394 Y138.137 E0.40428
M73 P2 R47
G1 X118.640 Y138.137 E0.02365
G1 X118.640 Y151.031 E0.40428
G1 X117.886 Y151.031 E0.02365
G1 X117.886 Y138.137 E0.40428
G1 X117.132 Y138.137 E0.02365
G1 X117.132 Y151.201 E0.40960
;WIPE_START
G1 F8640.000
G1 X117.132 Y147.910 E-0.76000
;WIPE_END
G1 E-0.04000 F2100.000
G1 Z0.600 F10800.000
G1 X120.902 Y145.518
G1 Z0.200
G1 E0.80000 F2100.000
G1 F1200.000
G1 X120.902 Y145.118 E0.01254
;WIPE_START
G1 F8640.000
G1 X120.902 Y145.518 E-0.09235
;WIPE_END
G1 E-0.70765 F2100.000
G1 Z0.600 F10800.000
G1 X135.231 Y137.968
G1 Z0.200
G1 E0.80000 F2100.000
G1 F1200.000
G1 X135.231 Y148.714 E0.33693
G1 X135.986 Y148.714 E0.02365
G1 X135.986 Y138.137 E0.33161
G1 X136.740 Y138.137 E0.02365
G1 X136.740 Y148.714 E0.33161
G1 X137.494 Y148.714 E0.02365
G1 X137.494 Y138.137 E0.33161
G1 X138.248 Y138.137 E0.02365
G1 X138.248 Y148.714 E0.33161
G1 X139.002 Y148.714 E0.02365
G1 X139.002 Y138.137 E0.33161
G1 X139.756 Y138.137 E0.02365
G1 X139.756 Y148.714 E0.33161
G1 X140.510 Y148.714 E0.02365
G1 X140.510 Y138.137 E0.33161
G1 X141.265 Y138.137 E0.02365
G1 X141.265 Y148.714 E0.33161
G1 X142.019 Y148.714 E0.02365
G1 X142.019 Y138.137 E0.33161
M73 Q2 S47
G1 X142.773 Y138.137 E0.02365
G1 X142.773 Y148.714 E0.33161
G1 X143.527 Y148.714 E0.02365
G1 X143.527 Y138.137 E0.33161
G1 X144.281 Y138.137 E0.02365
G1 X144.281 Y148.714 E0.33161
G1 X145.035 Y148.714 E0.02365
G1 X145.035 Y138.137 E0.33161
G1 X145.790 Y138.137 E0.02365
G1 X145.790 Y148.883 E0.33693
;WIPE_START
G1 F8640.000
G1 X145.790 Y145.592 E-0.76000
;WIPE_END
G1 E-0.04000 F2100.000
G1 Z0.600 F10800.000
G1 X121.196 Y144.464
G1 Z0.200
G1 E0.80000 F2100.000
;TYPE:External perimeter
G1 F1200.000
G1 X120.766 Y144.464 E0.01348
G1 X120.766 Y114.573 E0.93722
G1 X121.196 Y114.573 E0.01348
G1 X121.196 Y144.404 E0.93534
G1 X120.849 Y144.266 F10800.000
;WIPE_START
G1 F8640.000
G1 X120.766 Y144.464 E-0.10025
G1 X120.766 Y141.607 E-0.65975
;WIPE_END
G1 E-0.04000 F2100.000
G1 Z0.600 F10800.000
G1 X120.981 Y114.761
G1 Z0.200
G1 E0.80000 F2100.000
;TYPE:Gap fill
;WIDTH:0.0958424
G1 F1200.000
G1 X120.981 Y144.276 E0.12988
; stop printing object insert v3.stl id:0 copy 0
M106 S84.15
;LAYER_CHANGE
;Z:0.35
;HEIGHT:0.15
;BEFORE_LAYER_CHANGE
G92 E0.0
;0.35


;WIPE_START
G1 F8640.000
G1 X120.981 Y140.984 E-0.76000
;WIPE_END
G1 E-0.04000 F2100.000
G1 Z0.600 F10800.000
;AFTER_LAYER_CHANGE
;0.35
G1 X114.966 Y106.857
G1 Z0.350
G1 E0.80000 F2100.000
;TYPE:Skirt
;WIDTH:0.42
G1 F1044
G1 X115.488 Y106.118 E0.02188
G1 X116.246 Y105.630 E0.02179
G1 X117.134 Y105.459 E0.02188
G1 X124.879 Y105.638 E0.18735
G1 X146.064 Y107.963 E0.51544
G1 X146.568 Y108.078 E0.01250
G1 X147.035 Y108.299 E0.01250
G1 X147.444 Y108.616 E0.01250
G1 X147.774 Y109.014 E0.01250
G1 X148.063 Y109.629 E0.01643
G1 X148.167 Y110.301 E0.01643
G1 X148.166 Y148.921 E0.93404
G1 X148.087 Y149.493 E0.01397
G1 X147.874 Y150.026 E0.01388
G1 X147.539 Y150.492 E0.01388
G1 X147.100 Y150.867 E0.01397
G1 X146.601 Y151.118 E0.01351
G1 X146.057 Y151.245 E0.01351
G1 X124.796 Y153.405 E0.51684
G1 X116.911 Y153.568 E0.19074
G1 X116.390 Y153.460 E0.01287
G1 X115.910 Y153.240 E0.01278
G1 X115.489 Y152.920 E0.01278
G1 X115.148 Y152.511 E0.01287
G1 X114.857 Y151.893 E0.01652
G1 X114.755 Y151.221 E0.01643
G1 X114.757 Y107.737 E1.05166
G1 X114.952 Y106.915 E0.02043
; printing object insert v3.stl id:0 copy 0
;WIPE_START
G1 F8640.000
G1 X115.488 Y106.118 E-0.22183
G1 X116.246 Y105.630 E-0.20806
G1 X117.134 Y105.459 E-0.20892
G1 X117.659 Y105.471 E-0.12119
;WIPE_END
G1 E-0.04000 F2100.000
G1 Z0.750 F10800.000
G1 X121.381 Y114.363
G1 Z0.350
G1 E0.80000 F2100.000
M204 S800
;TYPE:External perimeter
;WIDTH:0.45
G1 F1044
G1 X121.381 Y145.074 E0.80021
;TYPE:Overhang perimeter
;WIDTH:0.357771
;HEIGHT:0.357771
M73 P3 R47
M73 Q3 S47
G1 F1800.000
G1 X121.381 Y145.087 E0.00053
G1 X120.581 Y145.087 E0.03344
G1 X120.581 Y145.074 E0.00053
;TYPE:External perimeter
;WIDTH:0.45
;HEIGHT:0.15
G1 F1044
G1 X120.581 Y113.963 E0.81063
;TYPE:Overhang perimeter
;WIDTH:0.357771
;HEIGHT:0.357771
G1 F1800.000
G1 X120.581 Y113.950 E0.00053
G1 X121.381 Y113.950 E0.03344
G1 X121.381 Y113.963 E0.00053
;TYPE:External perimeter
;WIDTH:0.45
;HEIGHT:0.15
G1 F1044
G1 X121.381 Y114.303 E0.00886
M204 S1000
;WIPE_START
G1 F8640.000
G1 X121.381 Y117.594 E-0.76000
;WIPE_END
G1 E-0.04000 F2100.000
G1 Z0.750 F10800.000
G1 X120.981 Y144.878
G1 Z0.350
G1 E0.80000 F2100.000
;TYPE:Gap fill
;WIDTH:0.414382
G1 F1044
G1 X120.981 Y114.159 E0.73218
; stop printing object insert v3.stl id:0 copy 0
;LAYER_CHANGE
;Z:0.4
;HEIGHT:0.05
;BEFORE_LAYER_CHANGE
G92 E0.0
;0.4


;WIPE_START
G1 F8640.000
G1 X120.981 Y117.451 E-0.76000
;WIPE_END
G1 E-0.04000 F2100.000
G1 Z0.750 F10800.000
;AFTER_LAYER_CHANGE
;0.4
; printing object insert v3.stl id:0 copy 0
G1 X122.140 Y114.123
G1 Z0.400
G1 E0.80000 F2100.000
;TYPE:Support material interface
;WIDTH:0.35
;HEIGHT:0.2
G1 F927
G1 X122.140 Y113.294 E0.02117
G1 X122.658 Y113.294 E0.01322
G1 X122.658 Y113.980 E0.01752
G1 X123.176 Y113.980 E0.01322
G1 X123.176 Y113.294 E0.01752
G1 X123.693 Y113.294 E0.01322
G1 X123.693 Y113.980 E0.01752
G1 X124.211 Y113.980 E0.01322
