; generated by PrusaSlicer 2.3.3+x64 on 2022-03-04 at 04:58:11 UTC

; 

; external perimeters extrusion width = 0.45mm
; perimeters extrusion width = 0.45mm
; infill extrusion width = 0.45mm
; solid infill extrusion width = 0.45mm
; top infill extrusion width = 0.40mm
; support material extrusion width = 0.35mm
; first layer extrusion width = 0.42mm

M73 P0 R90
M73 Q0 S91
M201 X1000 Y1000 Z200 E5000 ; sets maximum accelerations, mm/sec^2
M203 X200 Y200 Z12 E120 ; sets maximum feedrates, mm/sec
M204 P1250 R1250 T1250 ; sets acceleration (P, T) and retract acceleration (R), mm/sec^2
M205 X8.00 Y8.00 Z0.40 E4.50 ; sets the jerk limits, mm/sec
M205 S0 T0 ; sets the minimum extruding and travel feed rate, mm/sec
M107
;TYPE:Custom
M862.3 P "MK3" ; printer model check
M862.1 P0.4 ; nozzle diameter check
M115 U3.10.0 ; tell printer latest fw version
G90 ; use absolute coordinates
M83 ; extruder relative mode
M104 S215 ; set extruder temp
M140 S60 ; set bed temp
M190 S60 ; wait for bed temp
M109 S215 ; wait for extruder temp
G28 W ; home all without mesh bed level
G80 ; mesh bed leveling
G1 Y-3.0 F1000.0 ; go outside print area
G92 E0.0
G1 X60.0 E9.0 F1000.0 ; intro line
G1 X100.0 E12.5 F1000.0 ; intro line
G92 E0.0
M221 S95

; Don't change E values below. Excessive value can damage the printer.
M907 E430 ; set extruder motor current
G21 ; set units to millimeters
G90 ; use absolute coordinates
M83 ; use relative distances for extrusion
M900 K0.05 ; Filament gcode LA 1.5
M900 K30 ; Filament gcode LA 1.0
;LAYER_CHANGE
;Z:0.2
;HEIGHT:0.2
;BEFORE_LAYER_CHANGE
G92 E0.0
;0.2


G1 E-0.80000 F2100.000
G1 Z0.400 F10800.000
;AFTER_LAYER_CHANGE
;0.2
G1 X111.850 Y91.130
G1 Z0.200
G1 E0.80000 F2100.000
M204 S1000
;TYPE:Skirt
;WIDTH:0.42
G1 F1200.000
G1 X112.298 Y90.625 E0.02119
G1 X112.874 Y90.265 E0.02130
G1 X113.529 Y90.082 E0.02130
G1 X125.905 Y89.893 E0.38809
G1 X136.148 Y90.103 E0.32123
G1 X145.527 Y92.509 E0.30360
G1 X145.975 Y92.718 E0.01550
G1 X146.368 Y93.012 E0.01538
G1 X146.692 Y93.380 E0.01538
G1 X146.935 Y93.811 E0.01550
G1 X147.131 Y94.747 E0.03001
G1 X147.130 Y133.386 E1.21148
G1 X147.016 Y134.048 E0.02107
G1 X146.721 Y134.652 E0.02107
G1 X146.272 Y135.146 E0.02095
G1 X145.700 Y135.498 E0.02107
G1 X136.102 Y137.810 E0.30953
G1 X130.501 Y138.011 E0.17572
G1 X113.655 Y138.005 E0.52821
M73 Q0 S90
G1 X113.024 Y137.870 E0.02024
G1 X112.455 Y137.572 E0.02012
G1 X111.985 Y137.129 E0.02024
G1 X111.653 Y136.580 E0.02012
G1 X111.457 Y135.640 E0.03013
G1 X111.457 Y92.436 E1.35463
G1 X111.560 Y91.745 E0.02190
G1 X111.824 Y91.185 E0.01942
;WIPE_START
G1 F8640.000
G1 X112.298 Y90.625 E-0.16936
G1 X112.874 Y90.265 E-0.15689
G1 X113.529 Y90.082 E-0.15689
G1 X114.728 Y90.064 E-0.27685
;WIPE_END
G1 E-0.04000 F2100.000
G1 Z0.600 F10800.000
G1 X136.187 Y87.546
G1 Z0.200
G1 E0.80000 F2100.000
G1 F1200.000
G1 X126.338 Y87.538 E0.30880
G1 X125.734 Y87.563 E0.01896
G1 X125.516 Y87.539 E0.00689
G1 X113.356 Y87.546 E0.38125
G1 X112.123 Y87.825 E0.03965
G1 X111.044 Y88.386 E0.03813
G1 X110.076 Y89.273 E0.04116
G1 X109.409 Y90.287 E0.03806
G1 X108.932 Y91.962 E0.05462
G1 X108.932 Y136.145 E1.38532
G1 X109.246 Y137.411 E0.04091
G1 X109.771 Y138.369 E0.03423
G1 X111.107 Y139.644 E0.05791
G1 X111.983 Y140.085 E0.03076
G1 X112.946 Y140.321 E0.03110
G1 X113.965 Y140.338 E0.03195
G1 X114.241 Y140.367 E0.00868
G1 X121.722 Y140.367 E0.23458
G1 X121.962 Y140.342 E0.00755
G1 X122.567 Y140.367 E0.01898
G1 X130.018 Y140.367 E0.23363
G1 X130.258 Y140.342 E0.00756
G1 X130.865 Y140.367 E0.01907
G1 X135.377 Y140.355 E0.14148
G1 X136.164 Y140.370 E0.02466
G1 X137.972 Y139.838 E0.05910
G1 X138.890 Y139.212 E0.03484
G1 X139.731 Y138.304 E0.03883
G1 X139.883 Y138.050 E0.00927
G1 X144.347 Y138.050 E0.13998
G1 X144.624 Y138.020 E0.00874
G1 X145.619 Y138.006 E0.03120
G1 X146.664 Y137.743 E0.03377
G1 X147.700 Y137.174 E0.03706
G1 X148.655 Y136.256 E0.04154
G1 X149.201 Y135.419 E0.03134
G1 X149.656 Y133.841 E0.05148
G1 X149.656 Y122.109 E0.36784
G1 X149.206 Y120.472 E0.05324
G1 X148.552 Y119.450 E0.03803
G1 X147.703 Y118.635 E0.03691
G1 X147.319 Y118.413 E0.01391
G1 X146.942 Y118.195 F10800.000
G1 F1200.000
G1 X146.697 Y118.053 E0.00888
G1 X145.543 Y117.714 E0.03771
G1 X137.590 Y117.673 E0.24938
G1 X137.590 Y110.236 E0.23318
G1 X139.068 Y110.236 E0.04634
G1 X139.307 Y110.211 E0.00755
G1 X139.912 Y110.236 E0.01898
G1 X144.347 Y110.236 E0.13905
G1 X144.611 Y110.208 E0.00833
G1 X145.595 Y110.194 E0.03085
G1 X146.487 Y109.995 E0.02867
G1 X146.942 Y109.791 E0.01563
G1 X147.319 Y109.613 F10800.000
G1 F1200.000
G1 X148.738 Y108.339 E0.05978
G1 X149.347 Y107.275 E0.03844
G1 X149.657 Y106.009 E0.04086
G1 X149.602 Y93.910 E0.37934
G1 X149.272 Y92.813 E0.03591
G1 X148.713 Y91.835 E0.03536
G1 X147.897 Y90.982 E0.03699
G1 X146.952 Y90.354 E0.03558
G1 X145.308 Y89.866 E0.05379
G1 X140.641 Y89.855 E0.14632
G1 X140.389 Y89.882 E0.00794
G1 X139.879 Y89.869 E0.01600
G1 X139.657 Y89.505 E0.01335
G1 X138.401 Y88.316 E0.05424
G1 X137.330 Y87.790 E0.03740
G1 X136.187 Y87.546 E0.03665
;WIPE_START
G1 F8640.000
G1 X137.330 Y87.790 E-0.26994
G1 X138.401 Y88.316 E-0.27545
G1 X139.076 Y88.955 E-0.21461
;WIPE_END
G1 E-0.04000 F2100.000
G1 Z0.600 F10800.000
G1 X126.342 Y87.915
G1 Z0.200
G1 E0.80000 F2100.000
G1 F1200.000
G1 X125.720 Y87.941 E0.01952
G1 X125.505 Y87.916 E0.00680
G1 X113.377 Y87.923 E0.38024
G1 X112.273 Y88.172 E0.03548
G1 X111.279 Y88.682 E0.03506
G1 X110.376 Y89.503 E0.03823
G1 X109.762 Y90.421 E0.03463
G1 X109.309 Y91.989 E0.05120
G1 X109.309 Y136.121 E1.38372
G1 X109.606 Y137.296 E0.03799
G1 X110.052 Y138.117 E0.02930
G1 X111.346 Y139.351 E0.05605
G1 X112.130 Y139.737 E0.02741
G1 X113.013 Y139.949 E0.02849
G1 X113.989 Y139.961 E0.03059
G1 X114.252 Y139.990 E0.00829
G1 X121.711 Y139.990 E0.23390
G1 X121.949 Y139.964 E0.00748
G1 X122.571 Y139.990 E0.01952
G1 X130.007 Y139.990 E0.23317
G1 X130.244 Y139.964 E0.00748
G1 X130.868 Y139.990 E0.01959
G1 X135.381 Y139.978 E0.14148
G1 X136.142 Y139.993 E0.02389
G1 X137.785 Y139.509 E0.05370
G1 X138.629 Y138.940 E0.03189
G1 X139.438 Y138.065 E0.03736
G1 X139.659 Y137.672 E0.01413
G1 X144.336 Y137.672 E0.14666
G1 X144.600 Y137.643 E0.00833
G1 X145.591 Y137.629 E0.03107
G1 X146.546 Y137.383 E0.03093
G1 X147.456 Y136.885 E0.03253
G1 X148.378 Y135.998 E0.04010
G1 X148.848 Y135.285 E0.02677
G1 X149.279 Y133.814 E0.04808
G1 X149.279 Y122.135 E0.36619
G1 X148.872 Y120.650 E0.04827
G1 X148.274 Y119.706 E0.03503
G1 X147.459 Y118.923 E0.03544
G1 X147.319 Y118.843 E0.00506
G1 X146.942 Y118.627 F10800.000
G1 F1200.000
G1 X146.530 Y118.392 E0.01487
G1 X145.464 Y118.084 E0.03480
G1 X137.213 Y118.048 E0.25871
G1 X137.213 Y109.859 E0.25678
G1 X139.057 Y109.859 E0.05783
G1 X139.294 Y109.833 E0.00748
G1 X139.916 Y109.859 E0.01952
G1 X144.336 Y109.859 E0.13858
G1 X144.588 Y109.831 E0.00796
G1 X145.534 Y109.822 E0.02965
G1 X146.351 Y109.642 E0.02624
G1 X146.942 Y109.378 E0.02029
G1 X147.319 Y109.118 F10800.000
G1 F1200.000
G1 X148.427 Y108.123 E0.04668
G1 X148.988 Y107.157 E0.03504
G1 X149.279 Y105.986 E0.03782
G1 X149.233 Y93.991 E0.37610
G1 X148.933 Y92.980 E0.03308
G1 X148.423 Y92.077 E0.03253
G1 X147.671 Y91.284 E0.03425
G1 X146.767 Y90.684 E0.03402
G1 X145.280 Y90.243 E0.04864
G1 X140.651 Y90.232 E0.14513
G1 X140.405 Y90.259 E0.00775
G1 X139.656 Y90.241 E0.02350
G1 X139.376 Y89.758 E0.01751
G1 X138.207 Y88.640 E0.05069
G1 X137.227 Y88.154 E0.03433
G1 X136.166 Y87.923 E0.03403
G1 X126.342 Y87.915 E0.30803
;WIPE_START
G1 F8640.000
G1 X129.633 Y87.917 E-0.76000
;WIPE_END
G1 E-0.04000 F2100.000
G1 Z0.600 F10800.000
G1 X136.145 Y88.300
G1 Z0.200
G1 E0.80000 F2100.000
G1 F1200.000
G1 X126.346 Y88.292 E0.30724
G1 X125.705 Y88.319 E0.02013
G1 X125.493 Y88.293 E0.00669
G1 X113.398 Y88.300 E0.37922
G1 X112.422 Y88.519 E0.03136
G1 X111.512 Y88.980 E0.03199
G1 X110.675 Y89.734 E0.03533
G1 X110.115 Y90.556 E0.03118
G1 X109.686 Y92.017 E0.04773
G1 X109.686 Y136.097 E1.38210
G1 X109.965 Y137.179 E0.03505
G1 X110.335 Y137.864 E0.02441
G1 X111.584 Y139.057 E0.05414
G1 X112.274 Y139.388 E0.02401
G1 X113.039 Y139.572 E0.02467
G1 X114.013 Y139.584 E0.03055
G1 X114.263 Y139.613 E0.00788
G1 X121.700 Y139.613 E0.23318
G1 X121.934 Y139.586 E0.00740
G1 X122.575 Y139.613 E0.02009
G1 X129.996 Y139.613 E0.23269
G1 X130.230 Y139.586 E0.00740
G1 X130.872 Y139.613 E0.02013
G1 X135.384 Y139.601 E0.14148
G1 X136.121 Y139.615 E0.02311
G1 X137.600 Y139.179 E0.04836
G1 X138.367 Y138.667 E0.02892
G1 X139.144 Y137.828 E0.03586
G1 X139.432 Y137.295 E0.01898
G1 X144.325 Y137.295 E0.15342
G1 X144.575 Y137.266 E0.00790
G1 X145.562 Y137.252 E0.03095
G1 X146.428 Y137.025 E0.02807
G1 X147.213 Y136.595 E0.02806
G1 X148.101 Y135.742 E0.03862
G1 X148.517 Y135.103 E0.02388
G1 X148.902 Y133.787 E0.04300
G1 X148.902 Y122.160 E0.36457
G1 X148.538 Y120.828 E0.04329
G1 X147.968 Y119.928 E0.03340
G1 X147.319 Y119.310 E0.02810
G1 X146.942 Y119.055 F10800.000
G1 F1200.000
G1 X146.404 Y118.748 E0.01943
G1 X145.384 Y118.453 E0.03328
G1 X136.836 Y118.424 E0.26804
G1 X136.836 Y109.482 E0.28040
G1 X139.046 Y109.482 E0.06930
G1 X139.280 Y109.455 E0.00740
G1 X139.920 Y109.482 E0.02009
G1 X144.325 Y109.482 E0.13810
G1 X144.566 Y109.454 E0.00760
G1 X145.473 Y109.449 E0.02845
G1 X146.251 Y109.278 E0.02497
G1 X146.942 Y108.962 E0.02384
G1 X147.319 Y108.623 F10800.000
G1 F1200.000
G1 X148.117 Y107.906 E0.03362
G1 X148.629 Y107.037 E0.03164
G1 X148.902 Y105.963 E0.03474
G1 X148.863 Y94.073 E0.37283
G1 X148.578 Y93.107 E0.03157
G1 X148.132 Y92.318 E0.02841
G1 X147.444 Y91.586 E0.03150
G1 X146.582 Y91.014 E0.03244
G1 X145.252 Y90.620 E0.04349
G1 X140.662 Y90.609 E0.14392
G1 X140.423 Y90.637 E0.00754
G1 X139.430 Y90.612 E0.03116
G1 X139.092 Y90.008 E0.02170
G1 X138.012 Y88.964 E0.04712
G1 X137.121 Y88.517 E0.03124
G1 X136.145 Y88.300 E0.03136
;WIPE_START
G1 F8640.000
G1 X137.121 Y88.517 E-0.23093
G1 X138.012 Y88.964 E-0.23005
G1 X138.943 Y89.864 E-0.29902
;WIPE_END
G1 E-0.04000 F2100.000
G1 Z0.600 F10800.000
G1 X139.016 Y90.644
G1 Z0.200
G1 E0.80000 F2100.000
G1 F1200.000
G1 X138.807 Y90.256 E0.01382
G1 X137.816 Y89.288 E0.04346
G1 X136.974 Y88.865 E0.02954
G1 X136.086 Y88.673 E0.02849
G1 X126.350 Y88.669 E0.30526
G1 X125.690 Y88.697 E0.02071
G1 X125.459 Y88.669 E0.00730
G1 X113.458 Y88.673 E0.37626
G1 X112.568 Y88.867 E0.02857
G1 X111.745 Y89.277 E0.02885
G1 X110.943 Y90.000 E0.03382
G1 X110.468 Y90.693 E0.02637
G1 X110.063 Y92.045 E0.04423
G1 X110.063 Y136.073 E1.38047
G1 X110.310 Y137.024 E0.03083
G1 X110.618 Y137.614 E0.02086
G1 X111.821 Y138.762 E0.05213
G1 X112.415 Y139.038 E0.02055
G1 X113.065 Y139.196 E0.02097
G1 X114.039 Y139.207 E0.03054
G1 X114.275 Y139.236 E0.00745
G1 X121.688 Y139.236 E0.23243
G1 X121.919 Y139.208 E0.00729
G1 X122.579 Y139.236 E0.02070
G1 X129.984 Y139.236 E0.23218
G1 X130.215 Y139.208 E0.00729
G1 X130.875 Y139.236 E0.02072
G1 X135.387 Y139.224 E0.14148
G1 X136.098 Y139.238 E0.02230
G1 X137.462 Y138.827 E0.04467
G1 X138.136 Y138.368 E0.02555
G1 X138.849 Y137.592 E0.03304
G1 X138.999 Y137.306 E0.01012
;WIPE_START
G1 F8640.000
G1 X138.849 Y137.592 E-0.07452
G1 X138.136 Y138.368 E-0.24331
G1 X137.462 Y138.827 E-0.18816
G1 X136.409 Y139.144 E-0.25401
;WIPE_END
G1 E-0.04000 F2100.000
G1 Z0.600 F10800.000
G1 X140.609 Y136.918
G1 Z0.200
G1 E0.80000 F2100.000
G1 F1200.000
G1 X144.313 Y136.918 E0.11611
G1 X144.549 Y136.889 E0.00746
G1 X145.534 Y136.876 E0.03089
G1 X146.270 Y136.682 E0.02385
G1 X146.972 Y136.304 E0.02500
G1 X147.800 Y135.514 E0.03588
G1 X148.164 Y134.967 E0.02062
G1 X148.525 Y133.759 E0.03953
G1 X148.525 Y122.186 E0.36287
G1 X148.183 Y120.957 E0.03998
G1 X147.664 Y120.152 E0.03003
G1 X147.319 Y119.827 E0.01487
G1 X146.942 Y119.484 F10800.000
G1 F1200.000
G1 X146.278 Y119.104 E0.02399
G1 X145.305 Y118.823 E0.03175
G1 X136.459 Y118.801 E0.27738
M73 P0 R89
G1 X136.459 Y109.105 E0.30402
M73 P1 R89
M73 Q1 S90
G1 X139.034 Y109.105 E0.08074
G1 X139.265 Y109.076 E0.00729
G1 X139.924 Y109.105 E0.02070
G1 X144.313 Y109.105 E0.13760
G1 X144.543 Y109.077 E0.00726
G1 X145.414 Y109.076 E0.02734
G1 X146.114 Y108.926 E0.02245
G1 X146.752 Y108.638 E0.02195
G1 X146.942 Y108.467 E0.00801
G1 X147.319 Y108.128 F10800.000
G1 F1200.000
G1 X147.809 Y107.688 E0.02063
G1 X148.272 Y106.915 E0.02825
G1 X148.525 Y105.940 E0.03160
G1 X148.486 Y94.101 E0.37119
G1 X148.238 Y93.272 E0.02713
G1 X147.841 Y92.559 E0.02560
G1 X147.184 Y91.860 E0.03009
G1 X146.445 Y91.366 E0.02784
G1 X145.223 Y90.997 E0.04004
G1 X140.673 Y90.986 E0.14266
G1 X140.454 Y91.013 E0.00692
G1 X140.410 Y91.391 F10800.000
G1 F1200.000
G1 X139.954 Y91.384 E0.01428
G1 X139.764 Y91.364 E0.00602
G1 X138.972 Y91.364 E0.02483
G1 X138.765 Y90.969 E0.01398
G1 X138.529 Y90.519 F10800.000
G1 F1200.000
G1 X137.617 Y89.610 E0.04037
G1 X136.868 Y89.227 E0.02637
G1 X136.065 Y89.050 E0.02580
G1 X126.366 Y89.046 E0.30409
G1 X126.175 Y89.067 E0.00603
G1 X125.665 Y89.074 E0.01599
G1 X125.446 Y89.046 E0.00692
G1 X113.480 Y89.050 E0.37520
G1 X112.674 Y89.230 E0.02587
G1 X111.939 Y89.602 E0.02585
G1 X111.213 Y90.264 E0.03079
G1 X110.819 Y90.833 E0.02170
G1 X110.440 Y92.073 E0.04068
G1 X110.440 Y136.048 E1.37878
G1 X110.668 Y136.905 E0.02783
G1 X110.936 Y137.410 E0.01791
G1 X112.008 Y138.433 E0.04646
G1 X112.556 Y138.688 E0.01896
G1 X113.130 Y138.824 E0.01850
G1 X114.065 Y138.830 E0.02930
G1 X114.288 Y138.859 E0.00705
G1 X121.675 Y138.859 E0.23163
G1 X121.894 Y138.831 E0.00692
G1 X122.404 Y138.838 E0.01599
G1 X122.595 Y138.859 E0.00602
G1 X129.971 Y138.859 E0.23127
G1 X130.190 Y138.831 E0.00692
G1 X130.700 Y138.838 E0.01599
G1 X130.891 Y138.859 E0.00601
G1 X135.390 Y138.846 E0.14109
G1 X136.075 Y138.860 E0.02147
G1 X137.322 Y138.476 E0.04091
G1 X137.902 Y138.072 E0.02217
G1 X138.487 Y137.430 E0.02723
G1 X138.746 Y136.979 F10800.000
G1 F1200.000
G1 X138.970 Y136.541 E0.01543
G1 X140.565 Y136.541 E0.04999
;WIPE_START
G1 F8640.000
G1 X138.970 Y136.541 E-0.36813
G1 X138.746 Y136.979 E-0.11366
;WIPE_END
G1 E-0.31821 F2100.000
G1 Z0.600 F10800.000
G1 X142.175 Y136.541
G1 Z0.200
G1 E0.80000 F2100.000
G1 F1200.000
G1 X144.300 Y136.541 E0.06664
G1 X144.523 Y136.512 E0.00705
G1 X145.464 Y136.505 E0.02949
G1 X146.112 Y136.339 E0.02097
G1 X146.770 Y135.985 E0.02343
G1 X147.522 Y135.259 E0.03278
G1 X147.833 Y134.784 E0.01781
G1 X148.148 Y133.731 E0.03443
G1 X148.148 Y122.211 E0.36121
G1 X147.850 Y121.136 E0.03499
G1 X147.388 Y120.410 E0.02695
G1 X147.319 Y120.345 E0.00298
G1 X146.942 Y119.990 F10800.000
G1 F1200.000
G1 X146.732 Y119.792 E0.00906
G1 X146.151 Y119.460 E0.02096
G1 X145.226 Y119.192 E0.03021
G1 X136.081 Y119.177 E0.28671
G1 X136.081 Y108.727 E0.32765
G1 X139.021 Y108.727 E0.09217
G1 X139.240 Y108.699 E0.00692
G1 X139.750 Y108.707 E0.01599
G1 X139.941 Y108.727 E0.00602
G1 X144.300 Y108.727 E0.13669
G1 X144.519 Y108.699 E0.00692
G1 X145.358 Y108.703 E0.02631
G1 X145.978 Y108.574 E0.01987
G1 X146.570 Y108.306 E0.02037
G1 X146.942 Y107.971 E0.01570
G1 X147.319 Y107.632 F10800.000
G1 F1200.000
G1 X147.501 Y107.468 E0.00768
G1 X147.915 Y106.790 E0.02488
G1 X148.148 Y105.915 E0.02840
G1 X148.117 Y94.181 E0.36791
G1 X147.897 Y93.435 E0.02440
G1 X147.548 Y92.798 E0.02277
G1 X146.953 Y92.159 E0.02739
G1 X146.306 Y91.718 E0.02456
G1 X145.193 Y91.374 E0.03650
G1 X141.830 Y91.366 E0.10546
G1 X141.782 Y91.743 F10800.000
G1 F1200.000
G1 X140.698 Y91.741 E0.03400
G1 X140.488 Y91.769 E0.00664
G1 X139.929 Y91.761 E0.01752
G1 X139.752 Y91.741 E0.00560
G1 X138.663 Y91.741 E0.03414
G1 X138.563 Y91.395 E0.01128
G1 X138.282 Y90.845 E0.01937
G1 X137.816 Y90.336 F10800.000
G1 F1200.000
G1 X137.374 Y89.900 E0.01946
G1 X136.722 Y89.576 E0.02283
G1 X136.044 Y89.427 E0.02176
G1 X126.377 Y89.423 E0.30310
G1 X126.200 Y89.443 E0.00560
G1 X125.641 Y89.451 E0.01752
G1 X125.433 Y89.423 E0.00661
G1 X113.502 Y89.427 E0.37409
G1 X112.783 Y89.592 E0.02312
G1 X112.135 Y89.925 E0.02284
G1 X111.486 Y90.525 E0.02772
G1 X111.147 Y91.021 E0.01883
G1 X110.817 Y92.101 E0.03542
G1 X110.817 Y136.022 E1.37709
G1 X111.025 Y136.784 E0.02477
G1 X111.253 Y137.203 E0.01498
G1 X112.197 Y138.105 E0.04092
G1 X112.663 Y138.325 E0.01616
G1 X113.195 Y138.452 E0.01716
G1 X114.091 Y138.453 E0.02808
